X: 2216
T: Polonäs efter Abraham Hagholm (nr 85) 
S: efter Abraham Hagholm
R: Polonäs
O: Östergötland
B: Abraham Hagholms notbok, nr 85
B: http://www.smus.se/earkiv/fmk/browselarge.php?lang=sw&katalogid=M+26&bildnr=00018
B: Jämför [[http://www.smus.se/earkiv/fmk/browselarge.php?lang=sw&katalogid=Ma+4&bildnr=00030|SMUS - katalog Ma4 bild 30]] nr 117 ur [[Notböcker/Kumlins notsamling]]
Z: Nils L
M: 3/4
L: 1/16
K: F
f2>a2 a2ga bagf | agfe f2c2 A2F2 | Sf2>a2 a2ga bagf | agfe f4 F4 :|
cdef gege afaf | bgbg afaf g2g2 | cdef gege afaf | bgbg afaf g2g2 S |
(:musicend:)
(:music:)
